X: 1355
T: The Strawberry Blossom
R:Reel
N:2nd Setting
N:Collected by F. O'Neill
B:O'Neill's 1355
Z:Transcribed by Trish O'Neil
M:C|
L:1/8
K:D
fe (3def edBd|fd{e}dcd2ag|fe (3def edBc|dBAFTE2D2|
fe (3def edBd|fd{e}dc defg|afge fdec|dBAFTE2"H"D2||
faab afdf|abaf gfeg|faab afdf|gfedTB2A2|
faab afdf|abaf gfeg|f>a (3aba g>b (3bc'b|gfef gb"D.C."af|]


